static/assets/head_icons_png/man/bizi/1005438.svg

<svg xmlns="http://www.w3.org/2000/svg" width="5" height="9"><g transform="translate(-68.4 -30.3)"><radialGradient id="a" gradientUnits="userSpaceOnUse" gradientTransform="matrix(.00174 .00006 -.00005 .00183 70.25 39.1)" spreadMethod="pad" cx="0" cy="0" r="819.2" fx="0" fy="0"><stop offset="0" stop-color="#f39b61"/><stop offset="1" stop-color="#f8be98"/></radialGradient><path d="M71.95 35.5v.1l.05.45-.35-.05h-.2l-.15-.7-.1-.55v-1.5l.05-1.6 1.05-1.35q-.55 2.1-.45 3.75v.45l.1 1" fill="url(#a)"/><radialGradient id="b" gradientUnits="userSpaceOnUse" gradientTransform="matrix(.00174 .00006 -.00005 .00183 70.25 38.85)" spreadMethod="pad" cx="0" cy="0" r="819.2" fx="0" fy="0"><stop offset="0" stop-color="#f39b61"/><stop offset="1" stop-color="#f8be98"/></radialGradient><path d="M71.45 36h.2l.35.05-.05-.45v-.1l-.1-1 .45 1.45.3 1.5-.2.4-.15.15-.3.2-1 .45q-.55.65-1.1.25-.5-.45-.9-.6l-.3-.2q-.45-.25 0-.45l.85.1.7.4.6-.2.45-.35.2-.1.25-.25-.05-.65-.05-.3-.15-.3" fill="url(#b)"/><radialGradient id="c" gradientUnits="userSpaceOnUse" gradientTransform="matrix(.00066 .00006 -.00002 .0027 70.2 33.65)" spreadMethod="pad" cx="0" cy="0" r="819.2" fx="0" fy="0"><stop offset=".314" stop-color="#fff" stop-opacity=".431"/><stop offset="1" stop-color="#fff" stop-opacity="0"/></radialGradient><path d="M70.6 33.7l-.15 1.55-.1.3v.05l-.2.25-.2-.3v-.05l-.1-.3-.1-1.55q0-.95.15-1.55.1-.65.3-.6l.3.65.1 1.55" fill="url(#c)"/><radialGradient id="d" gradientUnits="userSpaceOnUse" gradientTransform="matrix(.00052 .00003 -.00003 .00053 70.05 36.6)" spreadMethod="pad" cx="0" cy="0" r="819.2" fx="0" fy="0"><stop offset=".314" stop-color="#fff" stop-opacity=".431"/><stop offset="1" stop-color="#fff" stop-opacity="0"/></radialGradient><path d="M70.35 36.3l.1.3-.15.3-.3.15-.25-.2-.15-.3.15-.3.3-.1.3.15" fill="url(#d)"/><radialGradient id="e" gradientUnits="userSpaceOnUse" gradientTransform="matrix(.00058 0 0 .00159 71.45 35.75)" spreadMethod="pad" cx="0" cy="0" r="819.2" fx="0" fy="0"><stop offset="0" stop-color="#f8c898"/><stop offset=".035" stop-color="#fdc7a7"/><stop offset="1" stop-color="#fdddc0"/></radialGradient><path d="M71.6 36.3l-.3.95q-.1.15-.1-1.9v-.6l.1.55.15.7.15.3" fill="url(#e)"/><radialGradient id="f" gradientUnits="userSpaceOnUse" gradientTransform="matrix(.001 0 0 .00192 68.8 35.55)" spreadMethod="pad" cx="0" cy="0" r="819.2" fx="0" fy="0"><stop offset="0" stop-color="#f8c898"/><stop offset=".035" stop-color="#fdc7a7"/><stop offset="1" stop-color="#fdddc0"/></radialGradient><path d="M69.35 34.65l.15 2.3-.05.2q-1.1.55-.95-.2l.25-1.55.3-2.35.3 1.6" fill="url(#f)"/><radialGradient id="g" gradientUnits="userSpaceOnUse" gradientTransform="matrix(.00136 -.00021 .00035 .00253 71.7 33.95)" spreadMethod="pad" cx="0" cy="0" r="819.2" fx="210473" fy="0"><stop offset=".337" stop-color="#f9c29f"/><stop offset="1" stop-color="#fedec1" stop-opacity="0"/></radialGradient><path d="M73.1 34.4l-.75.7-.45.6-.05-.05-.15-1.55.15-2v.25-.3q.45 1.4.95 1.65l.25.2.05.5" fill="url(#g)"/><path d="M71.85 37.95l-.6.15-.2.05h-.1l-.25.25-.15.1h-.2l-.25-.1-.05-.05.2.05.4-.05.25-.2.3-.2.2-.05q.3-.2.45 0v.05m-2.9 0q.1-.2.45 0l.15.05.45.35v.05l-.05-.05-.15-.1h-.1l-.2-.05-.55-.2v-.05" fill="#823909"/></g></svg>

<?xml version="1.0" encoding="utf-8"?>
<svg version="1.1" id="Layer_1"
xmlns="http://www.w3.org/2000/svg"
xmlns:xlink="http://www.w3.org/1999/xlink"
xmlns:author="http://www.sothink.com"
width="5px" height="9px"
xml:space="preserve">
<g id="445" transform="matrix(1, 0, 0, 1, -68.4, -30.3)">
<radialGradient
id="RadialGradID_3945" gradientUnits="userSpaceOnUse" gradientTransform="matrix(0.0017395, 6.10352e-005, -4.57764e-005, 0.00183105, 70.25, 39.1)" spreadMethod ="pad" cx="0" cy="0" r="819.2" fx="0" fy="0" >
<stop  offset="0"  style="stop-color:#F39B61;stop-opacity:1" />
<stop  offset="1"  style="stop-color:#F8BE98;stop-opacity:1" />
</radialGradient>
<path style="fill:url(#RadialGradID_3945) " d="M71.95,35.5L71.95 35.55L71.95 35.6L72 36.05L71.65 36L71.6 36L71.45 36L71.3 35.3L71.2 34.75L71.2 34.35L71.2 33.25L71.25 31.65L72.3 30.3Q71.75 32.4 71.85 34.05L71.85 34.5L71.95 35.5" />
<radialGradient
id="RadialGradID_3946" gradientUnits="userSpaceOnUse" gradientTransform="matrix(0.0017395, 6.10352e-005, -4.57764e-005, 0.00183105, 70.25, 38.85)" spreadMethod ="pad" cx="0" cy="0" r="819.2" fx="0" fy="0" >
<stop  offset="0"  style="stop-color:#F39B61;stop-opacity:1" />
<stop  offset="1"  style="stop-color:#F8BE98;stop-opacity:1" />
</radialGradient>
<path style="fill:url(#RadialGradID_3946) " d="M71.45,36L71.6 36L71.65 36L72 36.05L71.95 35.6L71.95 35.55L71.95 35.5L71.85 34.5L72.3 35.95L72.6 37.45L72.4 37.85L72.25 38L71.95 38.2L70.95 38.65Q70.4 39.3 69.85 38.9Q69.35 38.45 68.95 38.3L68.65 38.1Q68.2 37.85 68.65 37.65L69.5 37.75L70.2 38.15L70.8 37.95L71.25 37.6L71.45 37.5L71.7 37.25L71.65 36.6L71.6 36.3L71.45 36" />
<radialGradient
id="RadialGradID_3947" gradientUnits="userSpaceOnUse" gradientTransform="matrix(0.000656128, 6.10352e-005, -1.52588e-005, 0.00270081, 70.2, 33.65)" spreadMethod ="pad" cx="0" cy="0" r="819.2" fx="0" fy="0" >
<stop  offset="0.313725"  style="stop-color:#FFFFFF;stop-opacity:0.431373" />
<stop  offset="1"  style="stop-color:#FFFFFF;stop-opacity:0" />
</radialGradient>
<path style="fill:url(#RadialGradID_3947) " d="M70.6,33.7L70.45 35.25L70.35 35.55L70.35 35.6L70.15 35.85L69.95 35.55L69.95 35.5L69.85 35.2L69.75 33.65Q69.75 32.7 69.9 32.1Q70 31.45 70.2 31.5L70.5 32.15L70.6 33.7" />
<radialGradient
id="RadialGradID_3948" gradientUnits="userSpaceOnUse" gradientTransform="matrix(0.000518799, 3.05176e-005, -3.05176e-005, 0.000534058, 70.05, 36.6)" spreadMethod ="pad" cx="0" cy="0" r="819.2" fx="0" fy="0" >
<stop  offset="0.313725"  style="stop-color:#FFFFFF;stop-opacity:0.431373" />
<stop  offset="1"  style="stop-color:#FFFFFF;stop-opacity:0" />
</radialGradient>
<path style="fill:url(#RadialGradID_3948) " d="M70.35,36.3L70.45 36.6L70.3 36.9L70 37.05L69.75 36.85L69.6 36.55L69.75 36.25L70.05 36.15L70.35 36.3" />
<radialGradient
id="RadialGradID_3949" gradientUnits="userSpaceOnUse" gradientTransform="matrix(0.000579834, 0, 0, 0.00158691, 71.45, 35.75)" spreadMethod ="pad" cx="0" cy="0" r="819.2" fx="0" fy="0" >
<stop  offset="0"  style="stop-color:#F8C898;stop-opacity:1" />
<stop  offset="0.0352941"  style="stop-color:#FDC7A7;stop-opacity:1" />
<stop  offset="1"  style="stop-color:#FDDDC0;stop-opacity:1" />
</radialGradient>
<path style="fill:url(#RadialGradID_3949) " d="M71.6,36.3L71.3 37.25Q71.2 37.4 71.2 35.35L71.2 34.75L71.3 35.3L71.45 36L71.6 36.3" />
<radialGradient
id="RadialGradID_3950" gradientUnits="userSpaceOnUse" gradientTransform="matrix(0.000991821, 0, 0, 0.00192261, 68.8, 35.55)" spreadMethod ="pad" cx="0" cy="0" r="819.2" fx="0" fy="0" >
<stop  offset="0"  style="stop-color:#F8C898;stop-opacity:1" />
<stop  offset="0.0352941"  style="stop-color:#FDC7A7;stop-opacity:1" />
<stop  offset="1"  style="stop-color:#FDDDC0;stop-opacity:1" />
</radialGradient>
<path style="fill:url(#RadialGradID_3950) " d="M69.35,34.65L69.5 36.95L69.45 37.15Q68.35 37.7 68.5 36.95L68.75 35.4L69.05 33.05L69.35 34.65" />
<radialGradient
id="RadialGradID_3951" gradientUnits="userSpaceOnUse" gradientTransform="matrix(0.00135803, -0.000213623, 0.000350952, 0.00253296, 71.7, 33.95)" spreadMethod ="pad" cx="0" cy="0" r="819.2" fx="210473" fy="0" >
<stop  offset="0.337255"  style="stop-color:#F9C29F;stop-opacity:1" />
<stop  offset="1"  style="stop-color:#FEDEC1;stop-opacity:0" />
</radialGradient>
<path style="fill:url(#RadialGradID_3951) " d="M73.1,34.4L72.35 35.1L71.9 35.7L71.85 35.65L71.7 34.1L71.85 32.1L71.85 32.35L71.85 32.05Q72.3 33.45 72.8 33.7L73.05 33.9L73.1 34.4" />
<path style="fill:#823909;fill-opacity:1" d="M71.85,37.95L71.25 38.1L71.05 38.15L70.95 38.15L70.7 38.4L70.55 38.5L70.35 38.5L70.1 38.4L70.05 38.35L70.25 38.4L70.65 38.35L70.9 38.15L71.2 37.95L71.4 37.9Q71.7 37.7 71.85 37.9L71.85 37.95M68.95,37.95Q69.05 37.75 69.4 37.95L69.55 38L70 38.35L70 38.4L69.95 38.35L69.8 38.25L69.7 38.25L69.5 38.2L68.95 38L68.95 37.95" />
</g>
</svg>
